src/icons/unlock.svg

<svg width="16" height="16" viewBox="0 0 16 16" fill="none" xmlns="http://www.w3.org/2000/svg">
<path fill-rule="evenodd" clip-rule="evenodd" d="M5 7V5C5 3.34315 6.34315 2 8 2C9.30622 2 10.4175 2.83481 10.8293 4H11.874C11.4299 2.27477 9.86384 1 8 1C5.79086 1 4 2.79086 4 5V7H3L2 8V14L3 15H13L14 14V8L13 7H12H11H10H5ZM11 8H12H13V14H3V8H4H5H11Z" fill="#C5C5C5"/>
</svg>

<svg width="16" height="16" xmlns="http://www.w3.org/2000/svg"><path fill-rule="evenodd" clip-rule="evenodd" d="M5 7V5a3 3 0 0 1 5.83-1h1.044A4.002 4.002 0 0 0 4 5v2H3L2 8v6l1 1h10l1-1V8l-1-1H5zm6 1h2v6H3V8h8z"/></svg>
